packages/core/src/svgs/suip.svg

<svg width="24" height="24" viewBox="0 0 24 24" fill="none" xmlns="http://www.w3.org/2000/svg">
<g clip-path="url(#clip0_31_19458)">
<path d="M0 0H24V24H0V0Z" fill="#F0F3FA"/>
<mask id="mask0_31_19458" style="mask-type:luminance" maskUnits="userSpaceOnUse" x="3" y="6" width="18" height="11">
<path d="M3.42871 6.42871H20.5716V16.7144H3.42871V6.42871Z" fill="white"/>
</mask>
<g mask="url(#mask0_31_19458)">
<path d="M19.3971 9.87446L17.1214 7.60732H17.1171L17.1129 7.59875C16.7399 7.22579 16.2968 6.93038 15.8092 6.72957C15.3215 6.52876 14.7988 6.42651 14.2714 6.42875C13.4443 6.42875 12.66 6.67732 11.9957 7.1316C11.3272 6.67266 10.5351 6.42756 9.72429 6.42875C8.64857 6.42875 7.63715 6.84875 6.87857 7.60303L4.60715 9.87018C4.23215 10.2405 3.93441 10.6816 3.73119 11.1679C3.52798 11.6542 3.42334 12.176 3.42334 12.703C3.42334 13.2301 3.52798 13.7519 3.73119 14.2382C3.93441 14.7244 4.23215 15.1656 4.60715 15.5359C4.97985 15.9094 5.42281 16.2055 5.91049 16.407C6.39816 16.6086 6.9209 16.7116 7.44857 16.7102C8.27143 16.7102 9.05572 16.4616 9.72 16.0073C10.3913 16.4666 11.1866 16.7103 12 16.7059C12.8229 16.7059 13.6071 16.4616 14.2714 16.003C14.8231 16.3866 15.4626 16.625 16.1307 16.6962C16.7989 16.7673 17.4742 16.669 18.0943 16.4102C18.8295 16.1097 19.4586 15.597 19.9013 14.9375C20.344 14.278 20.5803 13.5016 20.58 12.7073C20.5806 12.1813 20.4767 11.6604 20.2744 11.1748C20.0721 10.6893 19.7754 10.2487 19.4014 9.87875L19.3971 9.87446ZM8.48572 14.8716C7.97315 15.1274 7.38599 15.1914 6.83033 15.0521C6.27468 14.9128 5.78718 14.5793 5.45594 14.112C5.12469 13.6446 4.97154 13.0741 5.02416 12.5037C5.07678 11.9333 5.3317 11.4005 5.74286 11.0016L8.01429 8.73875C8.36614 8.38398 8.81995 8.14787 9.31241 8.06336C9.80487 7.97885 10.3114 8.05015 10.7614 8.26732L9.15429 9.87018C8.77966 10.2405 8.4825 10.6817 8.28016 11.1681C8.07781 11.6545 7.97432 12.1763 7.97572 12.703C7.97572 13.4659 8.19 14.1945 8.58429 14.8245L8.48572 14.8716ZM13.7014 14.4002C13.3656 14.7393 12.9362 14.9706 12.4683 15.0645C12.0003 15.1584 11.515 15.1106 11.0743 14.9273C10.7068 14.778 10.382 14.5399 10.129 14.2344C9.87604 13.9289 9.70274 13.5654 9.62461 13.1765C9.54649 12.7875 9.56599 12.3853 9.68136 12.0058C9.79672 11.6263 10.0044 11.2812 10.2857 11.0016L12 9.30018L13.7057 11.0016C13.9292 11.2245 14.1066 11.4894 14.2276 11.781C14.3486 12.0726 14.4109 12.3852 14.4109 12.7009C14.4109 13.0166 14.3486 13.3292 14.2276 13.6208C14.1066 13.9124 13.9292 14.1772 13.7057 14.4002H13.7014ZM18.2571 14.413C17.8889 14.7793 17.4126 15.0174 16.8987 15.0923C16.3847 15.1671 15.8603 15.0747 15.4029 14.8287C15.9092 14.0288 16.1129 13.0742 15.9771 12.1373C15.8529 11.2802 15.4629 10.4916 14.8371 9.87018L13.2429 8.2716L13.2343 8.26303C14.1343 7.83875 15.24 7.99303 15.9771 8.73446H15.9857V8.74303L18.2529 10.9973L18.2614 11.0102C18.4865 11.2322 18.6652 11.4968 18.7872 11.7885C18.9092 12.0802 18.972 12.3933 18.972 12.7095C18.972 13.0256 18.9092 13.3387 18.7872 13.6304C18.6652 13.9221 18.4865 14.1867 18.2614 14.4087L18.2571 14.413Z" fill="#4EC3C9"/>
</g>
</g>
<defs>
<clipPath id="clip0_31_19458">
<rect width="24" height="24" fill="white"/>
</clipPath>
</defs>
</svg>

<svg xmlns="http://www.w3.org/2000/svg" width="24" height="24" fill="none" viewBox="0 0 24 24"><g clip-path="url(#a)"><path fill="#F0F3FA" d="M0 0h24v24H0z"/><mask id="b" width="18" height="11" x="3" y="6" maskUnits="userSpaceOnUse" style="mask-type:luminance"><path fill="#fff" d="M3.429 6.429h17.143v10.285H3.429z"/></mask><g mask="url(#b)"><path fill="#4EC3C9" d="m19.397 9.874-2.276-2.267h-.004l-.004-.008a4 4 0 0 0-2.842-1.17c-.827 0-1.611.248-2.275.703a4 4 0 0 0-2.272-.703c-1.075 0-2.087.42-2.845 1.174L4.607 9.87a3.98 3.98 0 0 0 0 5.666A4 4 0 0 0 7.45 16.71c.822 0 1.607-.248 2.271-.703a4 4 0 0 0 2.28.699c.823 0 1.607-.244 2.271-.703a4 4 0 0 0 3.823.407 4 4 0 0 0 2.18-5.235 4 4 0 0 0-.873-1.296zM8.486 14.872a2.4 2.4 0 0 1-2.743-3.87l2.271-2.263a2.4 2.4 0 0 1 2.747-.472L9.154 9.87a3.97 3.97 0 0 0-1.178 2.833c0 .763.214 1.492.608 2.122zM13.7 14.4a2.4 2.4 0 0 1-2.627.527 2.4 2.4 0 0 1-.788-3.925L12 9.3l1.706 1.702a2.4 2.4 0 0 1 0 3.398zm4.556.013a2.42 2.42 0 0 1-2.854.416c.506-.8.71-1.755.574-2.692a3.98 3.98 0 0 0-1.14-2.267l-1.594-1.598-.009-.009c.9-.424 2.006-.27 2.743.471h.009v.009l2.267 2.254.008.013a2.386 2.386 0 0 1 0 3.399z"/></g></g><defs><clipPath id="a"><path fill="#fff" d="M0 0h24v24H0z"/></clipPath></defs></svg>
